svg/NEPAnode-EnergyInfrastructure/Biomass_Icon.svg

<?xml version="1.0" encoding="UTF-8" standalone="no"?>
<!-- Created with Inkscape (http://www.inkscape.org/) -->

<svg
   xmlns:dc="http://purl.org/dc/elements/1.1/"
   xmlns:cc="http://creativecommons.org/ns#"
   xmlns:rdf="http://www.w3.org/1999/02/22-rdf-syntax-ns#"
   xmlns:svg="http://www.w3.org/2000/svg"
   xmlns="http://www.w3.org/2000/svg"
   xmlns:xlink="http://www.w3.org/1999/xlink"
   xmlns:sodipodi="http://sodipodi.sourceforge.net/DTD/sodipodi-0.dtd"
   xmlns:inkscape="http://www.inkscape.org/namespaces/inkscape"
   version="1.1"
   width="250"
   height="250"
   viewBox="0 0 0.34722222 0.34722222"
   id="svg2"
   inkscape:version="0.48.4 r9939"
   sodipodi:docname="Biomass_Icon.svg">
  <sodipodi:namedview
     pagecolor="#ffffff"
     bordercolor="#666666"
     borderopacity="1"
     objecttolerance="10"
     gridtolerance="10"
     guidetolerance="10"
     inkscape:pageopacity="0"
     inkscape:pageshadow="2"
     inkscape:window-width="1360"
     inkscape:window-height="744"
     id="namedview17"
     showgrid="false"
     inkscape:zoom="0.944"
     inkscape:cx="125"
     inkscape:cy="125"
     inkscape:window-x="0"
     inkscape:window-y="24"
     inkscape:window-maximized="1"
     inkscape:current-layer="svg2" />
  <title
     id="title4">SVG drawing</title>
  <desc
     id="desc6">This was produced by version 4.1 of GNU libplot, a free library for exporting 2-D vector graphics.</desc>
  <metadata
     id="metadata3395">
    <rdf:RDF>
      <cc:Work
         rdf:about="">
        <dc:format>image/svg+xml</dc:format>
        <dc:type
           rdf:resource="http://purl.org/dc/dcmitype/StillImage" />
        <dc:title>SVG drawing</dc:title>
      </cc:Work>
    </rdf:RDF>
  </metadata>
  <defs
     id="defs3393">
    <linearGradient
       id="linearGradient8138">
      <stop
         id="stop8140"
         style="stop-color:#ffffff;stop-opacity:0"
         offset="0" />
      <stop
         id="stop8142"
         style="stop-color:#000000;stop-opacity:0"
         offset="1" />
    </linearGradient>
    <radialGradient
       cx="0.17569096"
       cy="0.17470571"
       r="0.16916668"
       fx="0.17569096"
       fy="0.17470571"
       id="radialGradient8144"
       xlink:href="#linearGradient8138"
       gradientUnits="userSpaceOnUse" />
  </defs>
  <text
     x="-0.032071669"
     y="0.3455472"
     id="text7140"
     xml:space="preserve"
     style="font-size:0.0555556px;font-style:normal;font-variant:normal;font-weight:normal;font-stretch:normal;line-height:125%;letter-spacing:0px;word-spacing:0px;fill:#000000;fill-opacity:1;stroke:none;font-family:Energy Infrastructure;-inkscape-font-specification:Energy Infrastructure"><tspan
       x="-0.032071669"
       y="0.3455472"
       id="tspan7142"
       style="font-size:0.59036261px" /></text>
  <path
     d="M 329.28829,363.4657 A 105.41456,102.94666 0 1 1 118.45918,363.4657 105.41456,102.94666 0 1 1 329.28829,363.4657 z"
     transform="matrix(0.00161659,0,0,0.00168318,-0.18770819,-0.44043665)"
     id="path3037"
     style="opacity:0;fill:#000000;fill-opacity:1;fill-rule:nonzero;stroke:#000000;stroke-opacity:1" />
  <path
     d="M 296.14793,366.28613 A 58.877029,87.434151 0 1 1 178.39388,366.28613 58.877029,87.434151 0 1 1 296.14793,366.28613 z"
     transform="matrix(0.00161659,0,0,0.00168318,-0.18770819,-0.44043665)"
     id="path3807"
     style="opacity:0;fill:#000000;fill-opacity:1;fill-rule:nonzero;stroke:#000000;stroke-width:2;stroke-linejoin:round;stroke-miterlimit:4;stroke-opacity:1;stroke-dasharray:none" />
  <g
     style="font-size:0.0555556px;font-style:normal;font-variant:normal;font-weight:normal;font-stretch:normal;line-height:125%;letter-spacing:0px;word-spacing:0px;fill:#000000;fill-opacity:1;fill-rule:evenodd;stroke:none;font-family:Energy Infrastructure;-inkscape-font-specification:Energy Infrastructure"
     id="text8169">
    <path
       d="M 0.28484927,0.01063915 C 0.28251562,0.01413948 0.2797934,0.01763948 0.2766826,0.02113915 0.27396007,0.02425059 0.27162674,0.02930614 0.2696826,0.03630582 0.26540453,0.05341723 0.26346008,0.07072276 0.26384927,0.08822249 0.26462675,0.10533384 0.26482119,0.12244494 0.2644326,0.13955583 0.26404342,0.15627824 0.26190453,0.17261156 0.25801593,0.18855583 0.25412676,0.20450042 0.24557121,0.21966707 0.23234926,0.23405583 0.21640457,0.25116704 0.19832125,0.26147259 0.17809926,0.2649725 0.15787685,0.26847258 0.13668242,0.26866702 0.11451592,0.26555583 0.10907134,0.26866702 0.1053769,0.27333369 0.10343259,0.27955584 0.10148801,0.28577812 0.10032135,0.29258367 0.09993259,0.2999725 0.09993246,0.30736143 0.10051579,0.31494476 0.10168259,0.32272251 0.10284912,0.3305003 0.10401579,0.33750029 0.10518259,0.34372251 0.10557134,0.34566695 0.10459912,0.34683362 0.10226592,0.34722251 0.10032135,0.3476114 0.09798802,0.3476114 0.09526592,0.34722251 0.09293246,0.34683362 0.09059913,0.34625029 0.08826592,0.34547251 0.08593247,0.34430584 0.08476581,0.34294473 0.08476592,0.34138917 0.08282136,0.3270003 0.08146025,0.3120281 0.08068259,0.2964725 0.08029359,0.28052812 0.08262692,0.26536147 0.08768259,0.2509725 0.08223803,0.23813928 0.07796026,0.22433373 0.07484925,0.20955583 0.07173804,0.1947782 0.07057137,0.18038933 0.07134925,0.16638916 0.07251582,0.15200047 0.07621026,0.13858381 0.08243259,0.12613916 0.08865469,0.11369495 0.09857135,0.10319496 0.11218259,0.09463916 0.12034911,0.08958386 0.1308491,0.08433386 0.14368259,0.07888916 0.15651574,0.0730561 0.16973795,0.06741721 0.18334926,0.06197249 0.19696015,0.05613944 0.20998791,0.05030612 0.2224326,0.04447249 0.23487678,0.03863946 0.24479343,0.03261169 0.2521826,0.02638915 0.25451565,0.02444503 0.25762676,0.02230614 0.26151593,0.01997248 0.26579341,0.01763948 0.26987674,0.01550059 0.27376593,0.01355582 0.27765451,0.01161171 0.28076562,0.0102506 0.28309927,0.00947248 0.28543228,0.00869504 0.28601562,0.00908393 0.28484927,0.01063915 M 0.11043259,0.24630583 C 0.11354356,0.24008372 0.11626578,0.23405595 0.11859926,0.2282225 0.12015466,0.22511151 0.12151577,0.22219485 0.12268259,0.2194725 0.1238491,0.21636152 0.12521021,0.21325041 0.12676592,0.21013916 0.12754354,0.20858375 0.12832132,0.20722264 0.12909926,0.20605583 0.12987687,0.20450042 0.13065465,0.20294486 0.13143259,0.20138916 0.13182132,0.19983376 0.13259909,0.19847265 0.13376592,0.19730583 0.13415465,0.1965282 0.13454354,0.19575043 0.13493259,0.1949725 0.13532131,0.19419487 0.1357102,0.19341709 0.13609926,0.19263916 0.13687687,0.19147265 0.13765464,0.19030599 0.13843259,0.18913916 0.13959909,0.18758377 0.14057131,0.18622266 0.14134926,0.18505583 0.14212686,0.18350044 0.14309908,0.18213933 0.14426592,0.1809725 0.14543242,0.179806 0.14640464,0.17863933 0.14718259,0.1774725 0.15496018,0.16813934 0.16409906,0.15880602 0.17459926,0.14947249 0.17965461,0.14519492 0.18471016,0.14091714 0.18976593,0.13663916 0.19482126,0.1323616 0.19987681,0.12788938 0.20493259,0.12322249 0.19793237,0.12633382 0.19190459,0.12944493 0.18684926,0.13255583 0.18179349,0.13566715 0.17615461,0.13936159 0.16993259,0.14363916 0.15826574,0.15141713 0.14815464,0.16055601 0.13959926,0.17105583 0.13843242,0.17261156 0.13726576,0.17397267 0.13609926,0.17513916 0.13532131,0.176306 0.13434909,0.17766711 0.13318259,0.1792225 0.13240465,0.18077822 0.13143243,0.18233377 0.13026592,0.18388916 0.12948799,0.18505599 0.12871021,0.18661155 0.12793259,0.18855583 0.12754354,0.18933377 0.12715465,0.19011154 0.12676592,0.19088916 0.12637688,0.1916671 0.12598799,0.19244487 0.12559926,0.1932225 0.12521021,0.19400043 0.12482132,0.1947782 0.12443259,0.19555583 0.12443243,0.19633376 0.12404355,0.19711154 0.12326592,0.19788916 0.12248799,0.19944487 0.12190466,0.20100042 0.12151592,0.20255583 0.12112688,0.20372264 0.12054355,0.20527819 0.11976592,0.2072225 0.11859911,0.21033375 0.11743244,0.2136393 0.11626592,0.21713916 0.115488,0.2202504 0.11471022,0.22336151 0.11393259,0.2264725 0.11315467,0.22997262 0.11257133,0.23347261 0.11218259,0.2369725 0.11179356,0.24008372 0.11121023,0.24319483 0.11043259,0.24630583"
       style="font-size:0.58333337px;fill:#000000"
       id="path2995" />
  </g>
</svg>

<svg xmlns="http://www.w3.org/2000/svg" width="250" height="250" viewBox="0 0 0.34722222 0.34722222"><text x="-.032" y=".346" font-family="Energy Infrastructure" word-spacing="0" line-height="125%" letter-spacing="0" font-size=".056"><tspan x="-.032" y=".346" font-size=".59"/></text><g fill-rule="evenodd"><path d="m.285.011c-.002.004-.005.007-.008.001-.003.003-.005.008-.007.015-.004.017-.006.034-.006.052.0001.017.0001.034.0001.051 0 .017-.003.033-.006.049-.004.016-.012.031-.026.045-.016.017-.034.027-.054.031-.02.004-.041.004-.064.0001-.005.003-.009.008-.011.014-.002.006-.003.013-.004.02 0 .007.0001.015.002.023.0001.008.002.015.004.021 0 .002-.0001.003-.003.004-.002 0-.004 0-.007 0-.002 0-.005-.0001-.007-.002-.002-.0001-.004-.003-.004-.004-.002-.014-.003-.029-.004-.045 0-.016.002-.031.007-.046-.005-.013-.001-.027-.013-.041-.003-.015-.004-.029-.004-.043.0001-.014.005-.028.011-.04.006-.012.016-.023.03-.032.008-.005.019-.001.032-.016.013-.006.026-.011.04-.017.014-.006.027-.012.039-.017.012-.006.022-.012.03-.018.002-.002.005-.004.009-.006.004-.002.008-.004.012-.006.004-.002.007-.003.009-.004.002-.0001.003 0 .002.0001m-.174.236c.003-.006.006-.012.008-.018.002-.003.003-.006.004-.009.0001-.003.003-.006.004-.009.0001-.002.002-.003.002-.004.0001-.002.002-.003.002-.005 0-.002.0001-.003.002-.004 0-.0001.0001-.002.0001-.002 0-.0001.0001-.002.0001-.002.0001-.0001.002-.002.002-.004.0001-.002.002-.003.003-.004.0001-.002.002-.003.003-.004.0001-.0001.002-.002.003-.004.008-.009.017-.019.027-.028.005-.004.001-.009.015-.013.005-.004.001-.009.015-.013-.007.003-.013.006-.018.009-.005.003-.011.007-.017.011-.012.008-.022.017-.03.027-.0001.002-.002.003-.004.004-.0001.0001-.002.003-.003.004-.0001.002-.002.003-.003.005-.0001.0001-.002.003-.002.005 0 .0001-.0001.002-.0001.002 0 .0001-.0001.002-.0001.002 0 .0001-.0001.002-.0001.002 0 .0001 0 .002-.0001.002-.0001.002-.0001.003-.002.005 0 .0001-.0001.003-.002.005-.0001.003-.002.006-.004.001-.0001.003-.002.006-.002.009-.0001.004-.0001.007-.002.011 0 .003-.0001.006-.002.009"/></g></svg>
